X:115
T:Plywood and Sandbags 
R:reel
C: 2004, 2010 L.E. McCullough 
M:4/4
L:1/8
K:Adorian
G|:~A3B AG (3Bcd|~e3f ~g3e|~a3f gfed|B~G3 BedB|
~A3B ~A2 (3Bcd|~e3 f ~g3f|e~B3 eged|1 B~G3 A2AG:|2 B~G3 A2 ag|]
|:e~a3 bage|gbeg a2af|g~e3 f~d3|(3Bcd fd e3d|
e~a3 bage|gbc'b a2af|~g3e faed|1 B~G3 A2ag:|2 B~G3 A2AG|]
<end>
<start>
